tools/panel_16/weather-few-clouds-night.svg

<svg xmlns="http://www.w3.org/2000/svg" width="16" height="16" version="1.1">
 <defs>
  <style id="current-color-scheme" type="text/css">
   .ColorScheme-Text { color:#d3dae3; } .ColorScheme-Highlight { color:#5294e2; }
  </style>
 </defs>
 <g transform="translate(-0.01233998,-0.006)">
  <path style="fill:currentColor" class="ColorScheme-Text" d="M 7.752,1.0371 C 4.9892,1.1385 2.4433,2.8417 1.4395,5.5996 0.1756,9.072 1.8081,12.924 5.127,14.412 5.0338,14.075 4.9801,13.705 5.002,13.35 5.0297,12.348 5.5859,11.462 6.377,10.881 4.8101,9.148 4.2414,6.6344 5.0957,4.2871 5.6099,2.8745 6.5701,1.7787 7.752,1.0371 Z m 3.25,7.9689 c -1.312,0 -2.405,0.858 -2.813,2.031 -1.2304,0.156 -2.187,1.196 -2.187,2.469 0,1.381 1.119,2.5 2.5,2.5 l 5.5,0 c 1.105,0 2,-0.896 2,-2 0,-1.105 -0.895,-2 -2,-2 0,-1.657 -1.343,-3 -3,-3 z"/>
 </g>
</svg>

<svg xmlns="http://www.w3.org/2000/svg" width="16" height="16" version="1.1">
 <defs>
  <style id="current-color-scheme" type="text/css">
   .ColorScheme-Text { color:#d3dae3; } .ColorScheme-Highlight { color:#5294e2; }
  </style>
 </defs>
 <g>
  <path style="fill:currentColor" class="ColorScheme-Text" d="M 7.752,1.0371 C 4.9892,1.1385 2.4433,2.8417 1.4395,5.5996 0.1756,9.072 1.8081,12.924 5.127,14.412 5.0338,14.075 4.9801,13.705 5.002,13.35 5.0297,12.348 5.5859,11.462 6.377,10.881 4.8101,9.148 4.2414,6.6344 5.0957,4.2871 5.6099,2.8745 6.5701,1.7787 7.752,1.0371 Z M 11.002,9.006 C 9.69,9.006 8.597,9.864 8.189,11.037 6.9586,11.193 6.002,12.233 6.002,13.506 6.002,14.887 7.121,16.006 8.502,16.006 H 14.002 C 15.107,16.006 16.002,15.11 16.002,14.006 16.002,12.901 15.107,12.006 14.002,12.006 14.002,10.349 12.659,9.006 11.002,9.006 Z"/>
 </g>
</svg>
